; generated by SuperSlicer 2.3.57 on 2022-04-28 at 21:28:10 UTC

; 

; external perimeters extrusion width = 0.42mm
; perimeters extrusion width = 0.46mm
; infill extrusion width = 0.44mm
; solid infill extrusion width = 0.46mm
; top infill extrusion width = 0.44mm
; first layer extrusion width = 0.62mm

; object:{"name":"Voron_Design_Cube_v7","id":"Voron_Design_Cube_v7 id:0 copy 0","object_center":[175.000000,175.000000,0.000000],"boundingbox_center":[175.000000,175.000000,10.000000],"boundingbox_size":[20.000000,20.000000,20.000000]}
; plater:{"center":[175.000000,175.000000,0.000000],"boundingbox_center":[175.000000,175.000000,10.000000],"boundingbox_size":[20.000000,20.000000,20.000000]}

M73 P0 R26
;TYPE:Custom
PRINT_START
M107
G21 ; set units to millimeters
G90 ; use absolute coordinates
M82 ; use absolute distances for extrusion
G92 E0
; Filament gcode
M104 S211 ; set temperature
M109 S211 ; set temperature and wait for it to be reached
M190 S61 ; set bed temperature and wait for it to be reached
M107
;LAYER_CHANGE
;Z:0.3
;HEIGHT:0.3
G1 E-4 F3600
G1 Z0.2 F9000
G1 Z0.3
G92 E0
G1 Z0.5
G1 X160.719 Y158.848
G1 Z0.3
G1 E4 F3600
;TYPE:Skirt
;WIDTH:0.44
G1 F1800
G1 X157.291 Y162.316 E4.22844
G1 X156.359 Y163.616 E4.30336
G1 X155.646 Y165.038 E4.37791
G1 X155.33 Y165.93 E4.42222
G1 X155.096 Y166.854 E4.46691
G1 X154.95 Y167.797 E4.51159
G1 X154.893 Y168.741 E4.55591
G1 X154.897 Y181.438 E5.15074
G1 X155.04 Y182.849 E5.21718
G1 X155.378 Y184.226 E5.28362
G1 X155.791 Y185.3 E5.33753
G1 X156.318 Y186.314 E5.39107
G1 X156.96 Y187.269 E5.44498
G1 X157.705 Y188.146 E5.49889
G1 X162.298 Y192.694 E5.8017
G1 X163.602 Y193.632 E5.87698
G1 X165.038 Y194.354 E5.95227
G1 X165.93 Y194.67 E5.99658
G1 X166.854 Y194.904 E6.04127
G1 X167.797 Y195.05 E6.08595
G1 X168.741 Y195.107 E6.13027
G1 X181.438 Y195.103 E6.7251
G1 X182.849 Y194.96 E6.79154
G1 X184.226 Y194.622 E6.85798
G1 X185.3 Y194.209 E6.91189
G1 X186.314 Y193.682 E6.96543
G1 X187.269 Y193.04 E7.01934
G1 X188.146 Y192.295 E7.07325
G1 X192.694 Y187.702 E7.37606
G1 X193.632 Y186.398 E7.45134
G1 X194.354 Y184.962 E7.52663
G1 X194.869 Y183.308 E7.6078
G1 X195.097 Y181.59 E7.68898
G1 X195.108 Y168.83 E8.28676
G1 X195.049 Y167.791 E8.3355
G1 X194.883 Y166.756 E8.38461
G1 X194.614 Y165.751 E8.43336
G1 X194.244 Y164.779 E8.4821
G1 X193.487 Y163.37 E8.55702
G1 X192.519 Y162.098 E8.63194
G1 X188.238 Y157.795 E8.9163
G1 X187.246 Y156.942 E8.97758
G1 X185.855 Y156.061 E9.05471
G1 X184.348 Y155.418 E9.13147
G1 X182.758 Y155.025 E9.20823
G1 X181.125 Y154.892 E9.28499
G1 X168.42 Y154.903 E9.88018
G1 X166.733 Y155.122 E9.95988
G1 X165.113 Y155.615 E10.03922
G1 X164.182 Y156.042 E10.08723
G1 X163.291 Y156.564 E10.1356
G1 X162.458 Y157.174 E10.18398
G1 X161.696 Y157.859 E10.23198
G1 X160.761 Y158.805 E10.2943
; INIT printing object Voron_Design_Cube_v7 id:0 copy 0
G92 E0
G1 E-4 F3600
G1 Z0.5 F9000
; printing object Voron_Design_Cube_v7 id:0 copy 0
G1 X170.807 Y169.899
G1 Z0.3
G1 E0 F3600
;TYPE:Internal perimeter
;WIDTH:0.62
G1 F1800
G1 X170.314 Y170.349 E0.04622
G1 X170.055 Y170.626 E0.07253
G1 X169.638 Y171.146 E0.11875
G1 X169.267 Y171.723 E0.16626
G1 X168.958 Y172.335 E0.21376
G1 X168.715 Y172.976 E0.26126
G1 X168.539 Y173.638 E0.30876
G1 X168.432 Y174.315 E0.35627
G1 X168.398 Y174.982 E0.40249
G1 X168.408 Y175.361 E0.42881
G1 X168.477 Y176.024 E0.47502
G1 X168.618 Y176.695 E0.52253
G1 X168.828 Y177.348 E0.57003
G1 X169.097 Y177.958 E0.61625
G1 X169.277 Y178.292 E0.64257
G1 X169.638 Y178.854 E0.68879
G1 X170.066 Y179.389 E0.73629
G1 X170.548 Y179.876 E0.78379
G1 X171.063 Y180.3 E0.83001
G1 X171.374 Y180.518 E0.85633
G1 X171.949 Y180.856 E0.90255
G1 X172.572 Y181.141 E0.95005
G1 X173.222 Y181.359 E0.99756
G1 X173.891 Y181.509 E1.04506
G1 X174.572 Y181.589 E1.09256
G1 X175.257 Y181.598 E1.14006
G1 X175.94 Y181.536 E1.18756
G1 X176.612 Y181.403 E1.23506
G1 X177.267 Y181.202 E1.28257
G1 X177.898 Y180.933 E1.33007
G1 X178.498 Y180.601 E1.37757
G1 X179.059 Y180.208 E1.42507
G1 X179.577 Y179.759 E1.47258
G1 X180.046 Y179.259 E1.52008
G1 X180.46 Y178.713 E1.56758
G1 X180.806 Y178.143 E1.6138
G1 X180.977 Y177.804 E1.64011
G1 X181.231 Y177.187 E1.68634
G1 X181.424 Y176.529 E1.73384
G1 X181.548 Y175.855 E1.78134
G1 X181.601 Y175.171 E1.82884
G1 X181.583 Y174.486 E1.87635
G1 X181.494 Y173.807 E1.92385
G1 X181.336 Y173.14 E1.97136
G1 X181.109 Y172.493 E2.01886
G1 X180.824 Y171.89 E2.06507
G1 X180.635 Y171.56 E2.09139
G1 X180.26 Y171.009 E2.13761
G1 X179.818 Y170.485 E2.18511
G1 X179.324 Y170.01 E2.23261
G1 X178.784 Y169.588 E2.28012
G1 X178.202 Y169.225 E2.32761
G1 X177.586 Y168.924 E2.37512
G1 X176.942 Y168.689 E2.42262
G1 X176.278 Y168.522 E2.47012
G1 X175.599 Y168.424 E2.51763
G1 X174.933 Y168.398 E2.56385
G1 X174.553 Y168.413 E2.59016
G1 X173.891 Y168.491 E2.63638
G1 X173.222 Y168.641 E2.68389
G1 X172.572 Y168.859 E2.73139
G1 X171.949 Y169.144 E2.77889
G1 X171.358 Y169.492 E2.82639
G1 X170.855 Y169.863 E2.86974
G1 X171.185 Y170.31 F9000
G1 F1800
G1 X171.16 Y170.329 E2.87189
G1 X170.705 Y170.745 E2.91462
G1 X170.475 Y170.99 E2.93793
G1 X170.09 Y171.471 E2.98065
G1 X169.75 Y171.999 E3.02415
G1 X169.467 Y172.56 E3.06765
G1 X169.244 Y173.146 E3.11115
G1 X169.083 Y173.753 E3.15465
G1 X168.986 Y174.373 E3.19815
G1 X168.954 Y174.989 E3.24087
G1 X168.963 Y175.325 E3.26418
G1 X169.026 Y175.938 E3.3069
G1 X169.156 Y176.552 E3.3504
G1 X169.348 Y177.15 E3.3939
G1 X169.597 Y177.714 E3.43662
G1 X169.756 Y178.01 E3.45993
G1 X170.09 Y178.529 E3.50266
G1 X170.482 Y179.019 E3.54615
G1 X170.923 Y179.466 E3.58965
G1 X171.399 Y179.857 E3.63237
G1 X171.675 Y180.05 E3.65569
G1 X172.206 Y180.363 E3.69841
G1 X172.777 Y180.623 E3.7419
G1 X173.372 Y180.824 E3.78541
G1 X173.984 Y180.961 E3.82891
G1 X174.608 Y181.034 E3.8724
G1 X175.235 Y181.042 E3.91591
G1 X175.861 Y180.985 E3.9594
G1 X176.476 Y180.864 E4.0029
G1 X177.076 Y180.679 E4.04641
G1 X177.654 Y180.433 E4.08991
G1 X178.203 Y180.129 E4.1334
G1 X178.717 Y179.769 E4.17691
G1 X179.192 Y179.358 E4.22041
G1 X179.621 Y178.9 E4.26391
G1 X180 Y178.4 E4.3074
G1 X180.32 Y177.873 E4.35012
G1 X180.472 Y177.573 E4.37344
G1 X180.706 Y177.002 E4.41616
G1 X180.882 Y176.4 E4.45966
G1 X180.996 Y175.783 E4.50316
G1 X181.045 Y175.157 E4.54666
G1 X181.028 Y174.529 E4.59016
G1 X180.947 Y173.907 E4.63366
G1 X180.802 Y173.296 E4.67716
G1 X180.594 Y172.704 E4.72066
G1 X180.331 Y172.147 E4.76338
G1 X180.164 Y171.855 E4.78669
G1 X179.817 Y171.345 E4.82941
G1 X179.412 Y170.865 E4.87291
G1 X178.96 Y170.43 E4.91641
G1 X178.465 Y170.044 E4.95991
G1 X177.932 Y169.712 E5.0034
G1 X177.368 Y169.436 E5.04691
G1 X176.779 Y169.221 E5.09041
G1 X176.17 Y169.067 E5.13391
G1 X175.549 Y168.978 E5.17741
G1 X174.933 Y168.954 E5.22013
G1 X174.597 Y168.967 E5.24344
G1 X173.984 Y169.039 E5.28616
G1 X173.372 Y169.176 E5.32966
G1 X172.777 Y169.377 E5.37316
G1 X172.206 Y169.637 E5.41666
G1 X171.665 Y169.956 E5.46016
G1 X171.233 Y170.275 E5.49734
G1 X171.564 Y170.722 F9000
;TYPE:External perimeter
G1 F1800
G1 X171.513 Y170.759 E5.50166
G1 X171.096 Y171.14 E5.54088
G1 X170.895 Y171.354 E5.56119
G1 X170.541 Y171.796 E5.60041
G1 X170.233 Y172.275 E5.63991
G1 X169.977 Y172.784 E5.6794
G1 X169.774 Y173.317 E5.7189
G1 X169.628 Y173.868 E5.7584
G1 X169.539 Y174.431 E5.79789
G1 X169.51 Y174.996 E5.83711
G1 X169.517 Y175.289 E5.85743
G1 X169.576 Y175.852 E5.89664
G1 X169.694 Y176.41 E5.93614
G1 X169.868 Y176.952 E5.97564
G1 X170.097 Y177.47 E6.01486
G1 X170.235 Y177.728 E6.03517
G1 X170.541 Y178.204 E6.07439
G1 X170.898 Y178.649 E6.11389
G1 X171.298 Y179.055 E6.15338
G1 X171.735 Y179.414 E6.1926
G1 X171.975 Y179.582 E6.21292
G1 X172.463 Y179.869 E6.25213
G1 X172.981 Y180.106 E6.29163
G1 X173.522 Y180.288 E6.33113
G1 X174.078 Y180.412 E6.37063
G1 X174.644 Y180.479 E6.41012
G1 X175.214 Y180.486 E6.44962
G1 X175.781 Y180.435 E6.48912
G1 X176.341 Y180.324 E6.52861
G1 X176.885 Y180.157 E6.56811
G1 X177.41 Y179.933 E6.60761
G1 X177.908 Y179.657 E6.64711
G1 X178.375 Y179.33 E6.68661
G1 X178.806 Y178.957 E6.7261
G1 X179.196 Y178.541 E6.7656
G1 X179.54 Y178.087 E6.80509
G1 X179.834 Y177.603 E6.84431
G1 X179.966 Y177.342 E6.86463
G1 X180.181 Y176.818 E6.90385
G1 X180.341 Y176.271 E6.94334
G1 X180.444 Y175.711 E6.98284
G1 X180.489 Y175.143 E7.02234
G1 X180.474 Y174.573 E7.06184
G1 X180.4 Y174.008 E7.10133
G1 X180.268 Y173.453 E7.14083
G1 X180.079 Y172.915 E7.18033
G1 X179.838 Y172.404 E7.21955
G1 X179.692 Y172.149 E7.23986
G1 X179.374 Y171.681 E7.27907
G1 X179.006 Y171.246 E7.31858
G1 X178.595 Y170.851 E7.35807
G1 X178.146 Y170.5 E7.39757
G1 X177.663 Y170.198 E7.43706
G1 X177.15 Y169.948 E7.47656
G1 X176.615 Y169.752 E7.51606
G1 X176.062 Y169.613 E7.55556
G1 X175.498 Y169.532 E7.59506
G1 X174.933 Y169.51 E7.63427
G1 X174.64 Y169.522 E7.65459
G1 X174.078 Y169.588 E7.6938
G1 X173.522 Y169.712 E7.7333
G1 X172.981 Y169.894 E7.7728
G1 X172.463 Y170.131 E7.8123
G1 X171.972 Y170.42 E7.85179
G1 X171.612 Y170.686 E7.88282
;WIPE_START
G1 X171.506 Y170.697 F9000
;WIPE_END
G1 X169.472 Y166.501
;TYPE:Internal perimeter
G1 F1800
G1 X180.528 Y166.501 E8.64902
G1 X183.499 Y169.472 E8.94016
G1 X183.499 Y180.528 E9.70636
G1 X180.528 Y183.499 E9.99749
G1 X169.472 Y183.499 E10.7637
G1 X166.501 Y180.528 E11.05483
G1 X166.501 Y169.472 E11.82103
G1 X169.429 Y166.544 E12.10801
G1 X169.242 Y165.946 F9000
G1 F1800
G1 X180.758 Y165.946 E12.90611
G1 X184.054 Y169.242 E13.22914
G1 X184.054 Y180.758 E14.02724
G1 X180.758 Y184.054 E14.35027
G1 X169.242 Y184.054 E15.14837
G1 X165.946 Y180.758 E15.4714
G1 X165.946 Y169.242 E16.2695
G1 X169.199 Y165.988 E16.58838
G1 X169.012 Y165.39 F9000
;TYPE:External perimeter
G1 F1800
G1 X180.988 Y165.39 E17.41837
G1 X184.61 Y169.012 E17.7733
G1 X184.61 Y180.988 E18.6033
M73 P1 R26
G1 X180.988 Y184.61 E18.95823
G1 X169.012 Y184.61 E19.78823
G1 X165.39 Y180.988 E20.14316
G1 X165.39 Y169.012 E20.97316
G1 X168.969 Y165.432 E21.32393
;WIPE_START
G1 X169.294 Y165.673 F9000
;WIPE_END
G1 X183.332 Y169.895
;TYPE:Solid infill
;WIDTH:0.592884
G1 F1800
G1 X180.344 Y166.907 E21.60393
G1 X179.559 Y166.907 E21.65601
G1 X183.093 Y170.441 E21.98726
G1 X183.093 Y171.227 E22.03933
G1 X178.773 Y166.907 E22.44423
G1 X177.987 Y166.907 E22.4963
G1 X183.093 Y172.013 E22.97483
G1 X183.093 Y172.799 E23.02691
G1 X177.201 Y166.907 E23.57908
G1 X176.416 Y166.907 E23.63115
G1 X178.359 Y168.851 E23.81332
G1 X178.399 Y168.87 E23.81626
G1 X179.016 Y169.255 E23.86447
G1 X179.59 Y169.703 E23.91269
G1 X180.115 Y170.207 E23.96091
G1 X180.584 Y170.763 E24.00913
G1 X180.98 Y171.345 E24.05577
G1 X181.147 Y171.639 E24.07817
G1 X183.093 Y173.584 E24.26053
G1 X183.093 Y174.37 E24.3126
G1 X181.713 Y172.99 E24.44195
G1 X181.725 Y173.025 E24.44441
G1 X181.894 Y173.733 E24.49264
G1 X181.927 Y173.99 E24.50982
G1 X183.093 Y175.156 E24.61907
G1 X183.093 Y175.942 E24.67114
G1 X181.998 Y174.847 E24.77376
G1 X182.007 Y175.182 E24.79598
G1 X181.974 Y175.608 E24.8243
G1 X183.093 Y176.727 E24.92922
G1 X183.093 Y177.513 E24.98129
G1 X181.878 Y176.299 E25.09513
G1 X181.819 Y176.623 E25.11699
G1 X181.728 Y176.934 E25.13844
G1 X183.093 Y178.299 E25.26641
G1 X183.093 Y179.085 E25.31849
G1 X181.531 Y177.523 E25.46488
G1 X181.347 Y177.972 E25.49709
G1 X181.296 Y178.073 E25.50457
G1 X183.093 Y179.871 E25.67302
G1 X183.093 Y180.36 E25.70547
G1 X182.945 Y180.508 E25.71935
G1 X181.016 Y178.579 E25.90014
G1 X180.796 Y178.941 E25.92822
G1 X180.708 Y179.057 E25.93786
G1 X182.552 Y180.901 E26.11067
G1 X182.159 Y181.294 E26.14749
G1 X180.369 Y179.504 E26.31525
G1 X180.356 Y179.521 E26.31666
G1 X179.991 Y179.911 E26.3521
G1 X181.766 Y181.687 E26.51852
G1 X181.374 Y182.08 E26.55534
G1 X179.584 Y180.29 E26.72306
G1 X179.309 Y180.528 E26.74717
G1 X179.149 Y180.641 E26.76014
G1 X180.981 Y182.473 E26.93184
G1 X180.588 Y182.866 E26.96866
G1 X178.684 Y180.961 E27.14712
G1 X178.178 Y181.242 E27.18542
G1 X180.03 Y183.093 E27.35895
G1 X179.244 Y183.093 E27.41102
G1 X177.636 Y181.485 E27.56169
G1 X177.407 Y181.583 E27.57821
G1 X177.056 Y181.691 E27.60253
G1 X178.458 Y183.093 E27.73393
G1 X177.672 Y183.093 E27.786
G1 X176.432 Y181.852 E27.90229
G1 X175.998 Y181.938 E27.93161
G1 X175.754 Y181.96 E27.94784
G1 X176.887 Y183.093 E28.05402
G1 X176.101 Y183.093 E28.10609
G1 X175.008 Y182.001 E28.20849
G1 X174.545 Y181.995 E28.23917
G1 X174.173 Y181.951 E28.26403
G1 X175.315 Y183.093 E28.3711
G1 X174.529 Y183.093 E28.42317
G1 X172.844 Y181.408 E28.58109
G92 E0
G1 E-4 F3600
G1 Z0.5 F9000
G1 X177.403 Y168.68
G1 Z0.3
G1 E0 F3600
G1 F1800
G1 X175.63 Y166.907 E0.16616
G1 X174.844 Y166.907 E0.21824
G1 X176.011 Y168.073 E0.32757
G1 X175.636 Y168.02 E0.35265
G1 X175.152 Y168.001 E0.38474
G1 X174.058 Y166.907 E0.48726
G1 X173.273 Y166.907 E0.53934
G1 X174.389 Y168.024 E0.64401
G1 X173.823 Y168.09 E0.68183
G1 X173.698 Y168.118 E0.69029
G1 X172.487 Y166.907 E0.80382
G1 X171.701 Y166.907 E0.85589
G1 X173.061 Y168.267 E0.98336
G1 X172.473 Y168.465 E1.02447
G1 X170.915 Y166.907 E1.17047
G1 X170.129 Y166.907 E1.22254
G1 X171.93 Y168.707 E1.39125
G1 X171.761 Y168.784 E1.40351
G1 X171.421 Y168.984 E1.42968
G1 X169.492 Y167.055 E1.61049
G1 X169.099 Y167.448 E1.64731
G1 X170.944 Y169.293 E1.82026
G1 X170.549 Y169.585 E1.85284
G1 X170.498 Y169.632 E1.85745
G1 X168.706 Y167.841 E2.02536
G1 X168.313 Y168.234 E2.06218
G1 X170.087 Y170.007 E2.22841
G1 X170.029 Y170.06 E2.23358
G1 X169.748 Y170.36 E2.26084
G1 X169.706 Y170.412 E2.26527
G1 X167.92 Y168.626 E2.43264
G1 X167.527 Y169.019 E2.46946
G1 X169.357 Y170.849 E2.64091
G1 X169.308 Y170.909 E2.64607
G1 X169.043 Y171.321 E2.6785
G1 X167.134 Y169.412 E2.85741
G1 X166.907 Y169.64 E2.87875
G1 X166.907 Y169.97 E2.90065
G1 X168.762 Y171.825 E3.07447
G1 X168.587 Y172.171 E3.10017
G1 X168.514 Y172.363 E3.11377
G1 X166.907 Y170.756 E3.26438
G1 X166.907 Y171.542 E3.31645
G1 X168.305 Y172.94 E3.44746
G1 X168.14 Y173.561 E3.49005
G1 X166.907 Y172.328 E3.60565
G1 X166.907 Y173.113 E3.65773
G1 X168.034 Y174.24 E3.76333
G1 X168.028 Y174.273 E3.76555
G1 X167.992 Y174.984 E3.81274
G1 X166.907 Y173.899 E3.91445
G1 X166.907 Y174.685 E3.96653
G1 X168.048 Y175.826 E4.07351
G1 X168.076 Y176.087 E4.0909
G1 X168.223 Y176.787 E4.13826
G1 X166.907 Y175.471 E4.26161
G1 X166.907 Y176.256 E4.31368
G1 X168.69 Y178.04 E4.48082
G1 X168.733 Y178.136 E4.48779
G1 X168.928 Y178.498 E4.51505
G1 X169.308 Y179.091 E4.56169
G1 X169.763 Y179.659 E4.60991
G1 X170.274 Y180.176 E4.65812
G1 X170.818 Y180.623 E4.70477
G1 X171.155 Y180.859 E4.73203
G1 X171.761 Y181.216 E4.77867
G1 X171.955 Y181.305 E4.7928
G1 X173.744 Y183.093 E4.96041
G1 X172.958 Y183.093 E5.01248
G1 X166.907 Y177.042 E5.57957
G1 X166.907 Y177.828 E5.63165
G1 X172.172 Y183.093 E6.1251
G1 X171.386 Y183.093 E6.17717
G1 X166.907 Y178.614 E6.59698
G1 X166.907 Y179.399 E6.64905
G1 X170.601 Y183.093 E6.99522
G1 X169.815 Y183.093 E7.04729
G1 X166.668 Y179.946 E7.34221
; INIT stop printing object Voron_Design_Cube_v7 id:0 copy 0
M106 S68.85
;LAYER_CHANGE
;Z:0.5
;HEIGHT:0.2
G92 E0
G1 E-4 F3600
G1 Z0.5 F9000
; stop printing object Voron_Design_Cube_v7 id:0 copy 0
M104 S205 ; set temperature
M140 S59 ; set bed temperature
; INIT printing object Voron_Design_Cube_v7 id:0 copy 0
; printing object Voron_Design_Cube_v7 id:0 copy 0
G1 X169.614 Y178.094
G1 E0 F3600
;TYPE:Internal perimeter
;WIDTH:0.464
G1 F4200
G1 X169.956 Y178.625 E0.02211
G1 X170.359 Y179.128 E0.04468
G1 X170.812 Y179.587 E0.06726
G1 X171.3 Y179.988 E0.08937
G1 X171.586 Y180.188 E0.1016
G1 X172.13 Y180.509 E0.1237
G1 X172.716 Y180.777 E0.14628
G1 X173.328 Y180.982 E0.16886
G1 X173.957 Y181.123 E0.19143
G1 X174.597 Y181.198 E0.21401
G1 X175.242 Y181.207 E0.23659
G1 X175.884 Y181.148 E0.25916
G1 X176.517 Y181.024 E0.28174
G1 X177.133 Y180.834 E0.30432
G1 X177.726 Y180.581 E0.32689
G1 X178.29 Y180.269 E0.34947
G1 X178.819 Y179.899 E0.37205
G1 X179.306 Y179.477 E0.39462
G1 X179.747 Y179.006 E0.4172
G1 X180.137 Y178.493 E0.43977
G1 X180.464 Y177.953 E0.46188
G1 X180.621 Y177.641 E0.47411
G1 X180.861 Y177.057 E0.49622
G1 X181.043 Y176.438 E0.5188
G1 X181.159 Y175.804 E0.54137
G1 X181.209 Y175.161 E0.56395
G1 X181.193 Y174.517 E0.58652
G1 X181.109 Y173.877 E0.6091
G1 X180.96 Y173.25 E0.63168
