; generated by SuperSlicer 2.3.57 on 2022-04-28 at 20:47:50 UTC

; 

; external perimeters extrusion width = 0.42mm
; perimeters extrusion width = 0.46mm
; infill extrusion width = 0.44mm
; solid infill extrusion width = 0.46mm
; top infill extrusion width = 0.44mm
; first layer extrusion width = 0.62mm

; object:{"name":"xyzCalibration_cube","id":"xyzCalibration_cube id:0 copy 0","object_center":[175.000000,175.000000,0.000000],"boundingbox_center":[175.000000,175.000000,10.000000],"boundingbox_size":[20.000000,20.000000,20.000000]}
; plater:{"center":[175.000000,175.000000,0.000000],"boundingbox_center":[175.000000,175.000000,10.000000],"boundingbox_size":[20.000000,20.000000,20.000000]}

M73 P0 R19
;TYPE:Custom
PRINT_START
M107
G21 ; set units to millimeters
G90 ; use absolute coordinates
M82 ; use absolute distances for extrusion
G92 E0
; Filament gcode
M104 S211 ; set temperature
M109 S211 ; set temperature and wait for it to be reached
M190 S61 ; set bed temperature and wait for it to be reached
;LAYER_CHANGE
;Z:0.3
;HEIGHT:0.3
G1 E-4 F3600
G1 Z0.2 F9000
G1 Z0.3
G92 E0
G1 Z0.5
G1 X157.917 Y157.836
G1 Z0.3
G1 E4 F3600
;TYPE:Skirt
;WIDTH:0.44
G1 F1800
G1 X157.21 Y158.61 E4.04911
G1 X156.583 Y159.46 E4.09859
G1 X155.926 Y160.609 E4.16062
G1 X155.421 Y161.841 E4.223
G1 X155.082 Y163.121 E4.28503
G1 X154.912 Y164.442 E4.34741
G1 X154.929 Y185.782 E5.34718
G1 X155.089 Y186.913 E5.40072
G1 X155.378 Y188.027 E5.45463
G1 X155.79 Y189.101 E5.50854
G1 X156.321 Y190.122 E5.56245
G1 X156.958 Y191.071 E5.61599
G1 X157.704 Y191.947 E5.66989
G1 X158.543 Y192.734 E5.7238
G1 X159.46 Y193.417 E5.77734
G1 X160.609 Y194.074 E5.83936
G1 X161.841 Y194.579 E5.90175
G1 X163.121 Y194.918 E5.96377
G1 X164.442 Y195.088 E6.02616
G1 X185.782 Y195.071 E7.02593
G1 X186.913 Y194.911 E7.07947
G1 X188.027 Y194.622 E7.13338
G1 X189.101 Y194.21 E7.18729
G1 X190.122 Y193.679 E7.24119
G1 X191.071 Y193.042 E7.29473
G1 X191.947 Y192.296 E7.34864
G1 X192.734 Y191.457 E7.40255
G1 X193.417 Y190.54 E7.45609
G1 X194.088 Y189.363 E7.51958
G1 X194.599 Y188.099 E7.58345
G1 X194.935 Y186.786 E7.64694
G1 X195.095 Y185.432 E7.71081
G1 X195.107 Y164.958 E8.66999
G1 X195.031 Y163.834 E8.7228
G1 X194.83 Y162.717 E8.77597
G1 X194.299 Y161.101 E8.85567
G1 X193.506 Y159.596 E8.93538
G1 X192.479 Y158.249 E9.01471
G1 X191.236 Y157.087 E9.09442
G1 X189.825 Y156.151 E9.17375
G1 X188.271 Y155.459 E9.25346
G1 X186.623 Y155.036 E9.33316
G1 X184.928 Y154.892 E9.41286
G1 X165.022 Y154.892 E10.34546
G1 X163.459 Y155.022 E10.41891
G1 X162.434 Y155.242 E10.46802
G1 X161.43 Y155.569 E10.5175
G1 X160.472 Y155.994 E10.56661
G1 X159.556 Y156.52 E10.6161
G1 X158.699 Y157.138 E10.66558
G1 X157.962 Y157.796 E10.71188
; INIT printing object xyzCalibration_cube id:0 copy 0
G92 E0
G1 E-4 F3600
G1 Z0.5 F9000
; printing object xyzCalibration_cube id:0 copy 0
G1 X165.39 Y165.39
G1 Z0.3
G1 E0 F3600
;TYPE:External perimeter
;WIDTH:0.62
G1 F1800
G1 X184.61 Y165.39 E1.33194
G1 X184.61 Y184.61 E2.66389
G1 X165.39 Y184.61 E3.99583
G1 X165.39 Y165.45 E5.32362
;WIPE_START
G1 X165.736 Y165.59 F9000
;WIPE_END
G1 X165.946 Y165.946
;TYPE:Internal perimeter
G1 F1800
G1 X184.054 Y165.946 E6.57856
G1 X184.054 Y184.054 E7.83349
G1 X165.946 Y184.054 E9.08843
M73 P1 R19
G1 X165.946 Y166.006 E10.33921
G1 X166.501 Y166.501 F9000
G1 F1800
G1 X183.499 Y166.501 E11.51713
G1 X183.499 Y183.499 E12.69506
G1 X166.501 Y183.499 E13.87299
G1 X166.501 Y166.561 E15.04676
G1 X182.209 Y166.668 F9000
;TYPE:Solid infill
;WIDTH:0.61456
G1 F1800
G1 X183.093 Y167.552 E15.13266
G1 X183.093 Y168.338 E15.18663
G1 X181.662 Y166.907 E15.32565
G1 X180.876 Y166.907 E15.37963
G1 X183.093 Y169.124 E15.59498
G1 X183.093 Y169.909 E15.64896
G1 X180.091 Y166.907 E15.94065
G1 X179.305 Y166.907 E15.99462
G1 X183.093 Y170.695 E16.36265
G1 X183.093 Y171.481 E16.41662
G1 X178.519 Y166.907 E16.86098
G1 X177.733 Y166.907 E16.91495
G1 X183.093 Y172.267 E17.43564
G1 X183.093 Y173.052 E17.48962
G1 X176.948 Y166.907 E18.08664
G1 X176.162 Y166.907 E18.14061
G1 X183.093 Y173.838 E18.81397
G1 X183.093 Y174.624 E18.86794
G1 X175.376 Y166.907 E19.61763
G1 X174.59 Y166.907 E19.6716
G1 X183.093 Y175.41 E20.49762
G1 X183.093 Y176.196 E20.5516
G1 X173.804 Y166.907 E21.45395
G1 X173.019 Y166.907 E21.50793
G1 X183.093 Y176.981 E22.48661
G1 X183.093 Y177.767 E22.54059
G1 X172.233 Y166.907 E23.59561
G1 X171.447 Y166.907 E23.64958
G1 X183.093 Y178.553 E24.78094
G1 X183.093 Y179.339 E24.83491
G1 X170.661 Y166.907 E26.0426
G1 X169.876 Y166.907 E26.09657
G1 X183.093 Y180.124 E27.38059
G1 X183.093 Y180.91 E27.43457
G1 X169.09 Y166.907 E28.79492
G1 X168.304 Y166.907 E28.84889
G1 X183.093 Y181.696 E30.28558
G1 X183.093 Y182.482 E30.33955
G1 X167.518 Y166.907 E31.85257
G1 X166.907 Y166.907 E31.89458
G1 X166.907 Y167.081 E31.90654
M73 P2 R19
G1 X182.919 Y183.093 E33.46204
G1 X182.133 Y183.093 E33.51602
G1 X166.907 Y167.867 E34.99518
G1 X166.907 Y168.653 E35.04916
G1 X181.347 Y183.093 E36.45199
G1 X180.562 Y183.093 E36.50596
G1 X166.907 Y169.438 E37.83246
G1 X166.907 Y170.224 E37.88644
G1 X179.776 Y183.093 E39.1366
G1 X178.99 Y183.093 E39.19058
G1 X166.907 Y171.01 E40.36441
G1 X166.907 Y171.796 E40.41838
G1 X178.204 Y183.093 E41.51588
G1 X177.419 Y183.093 E41.56986
G1 X166.907 Y172.581 E42.59102
G1 X166.907 Y173.367 E42.645
G1 X176.633 Y183.093 E43.58983
G1 X175.847 Y183.093 E43.64381
G1 X166.907 Y174.153 E44.51231
G1 X166.907 Y174.939 E44.56628
G1 X175.061 Y183.093 E45.35845
G1 X174.276 Y183.093 E45.41242
G1 X166.907 Y175.724 E46.12826
G1 X166.907 Y176.51 E46.18223
G1 X173.49 Y183.093 E46.82173
G1 X172.704 Y183.093 E46.87571
G1 X166.907 Y177.296 E47.43888
G1 X166.907 Y178.082 E47.49285
G1 X171.918 Y183.093 E47.97969
G1 X171.132 Y183.093 E48.03366
G1 X166.907 Y178.868 E48.44416
G1 X166.907 Y179.653 E48.49814
G1 X170.347 Y183.093 E48.83231
G1 X169.561 Y183.093 E48.88628
G1 X166.907 Y180.439 E49.14412
G1 X166.907 Y181.225 E49.1981
G1 X168.775 Y183.093 E49.3796
G1 X167.989 Y183.093 E49.43357
G1 X166.907 Y182.011 E49.53874
G1 X166.907 Y182.796 E49.59272
G1 X167.443 Y183.332 E49.64476
; INIT stop printing object xyzCalibration_cube id:0 copy 0
M106 S63.75
;LAYER_CHANGE
;Z:0.5
;HEIGHT:0.2
G92 E0
G1 E-4 F3600
G1 Z0.5 F9000
; stop printing object xyzCalibration_cube id:0 copy 0
M104 S205 ; set temperature
M140 S59 ; set bed temperature
; INIT printing object xyzCalibration_cube id:0 copy 0
; printing object xyzCalibration_cube id:0 copy 0
G1 X166.11 Y183.89
G1 E0 F3600
;TYPE:Internal perimeter
;WIDTH:0.464
G1 F4200
G1 X166.11 Y166.11 E0.62252
G1 X183.89 Y166.11 E1.24504
G1 X183.89 Y183.89 E1.86756
G1 X166.17 Y183.89 E2.48797
G1 X165.689 Y184.311 F9000
G1 F4200
G1 X165.689 Y165.689 E3.13998
G1 X184.311 Y165.689 E3.79198
G1 X184.311 Y184.311 E4.44399
G1 X165.749 Y184.311 E5.09389
G1 X165.29 Y184.71 F9000
;TYPE:External perimeter
;WIDTH:0.42
M73 P3 R19
G1 F2100
G1 X165.29 Y165.29 E5.70279
G1 X184.71 Y165.29 E6.31169
G1 X184.71 Y184.71 E6.92059
G1 X165.35 Y184.71 E7.52761
;WIPE_START
G1 X165.49 Y184.364 F9000
;WIPE_END
G1 X167.092 Y166.236
;TYPE:Solid infill
;WIDTH:0.463742
G1 F2400
G1 X166.418 Y166.911 E7.56097
G1 X166.418 Y167.506 E7.58181
G1 X167.506 Y166.418 E7.63568
G1 X168.102 Y166.418 E7.65652
G1 X166.418 Y168.102 E7.73986
G1 X166.418 Y168.697 E7.7607
G1 X168.697 Y166.418 E7.87351
G1 X169.293 Y166.418 E7.89435
G1 X166.418 Y169.293 E8.03663
G1 X166.418 Y169.888 E8.05747
G1 X169.888 Y166.418 E8.22922
G1 X170.484 Y166.418 E8.25006
G1 X166.418 Y170.484 E8.45128
G1 X166.418 Y171.079 E8.47212
G1 X171.079 Y166.418 E8.70281
G1 X171.675 Y166.418 E8.72365
G1 X166.418 Y171.675 E8.98381
G1 X166.418 Y172.27 E9.00465
G1 X172.27 Y166.418 E9.29428
G1 X172.866 Y166.418 E9.31512
G1 X166.418 Y172.866 E9.63422
G1 X166.418 Y173.461 E9.65505
G1 X173.461 Y166.418 E10.00362
G1 X174.057 Y166.418 E10.02446
G1 X166.418 Y174.057 E10.4025
G1 X166.418 Y174.652 E10.42334
G1 X174.652 Y166.418 E10.83085
G1 X175.248 Y166.418 E10.85169
G1 X166.418 Y175.248 E11.28867
G1 X166.418 Y175.843 E11.30951
G1 X175.843 Y166.418 E11.77596
G1 X176.439 Y166.418 E11.7968
G1 X166.418 Y176.439 E12.29272
G1 X166.418 Y177.034 E12.31356
G1 X177.034 Y166.418 E12.83895
G1 X177.63 Y166.418 E12.85979
G1 X166.418 Y177.63 E13.41465
G1 X166.418 Y178.225 E13.43549
G1 X178.225 Y166.418 E14.01982
G1 X178.821 Y166.418 E14.04065
G1 X166.418 Y178.82 E14.65445
G1 X166.418 Y179.416 E14.67529
G1 X179.416 Y166.418 E15.31856
G1 X180.011 Y166.418 E15.3394
G1 X166.418 Y180.011 E16.01214
G1 X166.418 Y180.607 E16.03298
G1 X180.607 Y166.418 E16.73519
G1 X181.202 Y166.418 E16.75603
G1 X166.418 Y181.202 E17.48771
G1 X166.418 Y181.798 E17.50855
G1 X181.798 Y166.418 E18.2697
G1 X182.393 Y166.418 E18.29054
G1 X166.418 Y182.393 E19.08116
G1 X166.418 Y182.989 E19.102
G1 X182.989 Y166.418 E19.92209
M73 P4 R19
G1 X183.582 Y166.42 E19.94285
G1 X166.42 Y183.582 E20.79222
G1 X167.015 Y183.582 E20.81306
G1 X183.582 Y167.015 E21.63295
G1 X183.582 Y167.611 E21.65379
G1 X167.611 Y183.582 E22.44421
G1 X168.206 Y183.582 E22.46505
G1 X183.582 Y168.206 E23.226
G1 X183.582 Y168.802 E23.24684
G1 X168.801 Y183.582 E23.97832
G1 X169.397 Y183.582 E23.99916
G1 X183.582 Y169.397 E24.70117
G1 X183.582 Y169.992 E24.72201
G1 X169.992 Y183.582 E25.39456
G1 X170.588 Y183.582 E25.41539
G1 X183.582 Y170.588 E26.05847
G1 X183.582 Y171.183 E26.07931
G1 X171.183 Y183.582 E26.69291
M73 P4 R18
G1 X171.779 Y183.582 E26.71375
G1 X183.582 Y171.779 E27.29788
G1 X183.582 Y172.374 E27.31872
G1 X172.374 Y183.582 E27.87338
G1 X172.97 Y183.582 E27.89422
G1 X183.582 Y172.97 E28.41941
G1 X183.582 Y173.565 E28.44025
G1 X173.565 Y183.582 E28.93598
G1 X174.161 Y183.582 E28.95681
G1 X183.582 Y174.161 E29.42307
G1 X183.582 Y174.756 E29.44391
G1 X174.756 Y183.582 E29.88069
G1 X175.352 Y183.582 E29.90153
G1 X183.582 Y175.352 E30.30884
G1 X183.582 Y175.947 E30.32968
G1 X175.947 Y183.582 E30.70752
G1 X176.543 Y183.582 E30.72836
G1 X183.582 Y176.543 E31.07673
G1 X183.582 Y177.138 E31.09757
G1 X177.138 Y183.582 E31.41648
G1 X177.734 Y183.582 E31.43731
G1 X183.582 Y177.734 E31.72675
G1 X183.582 Y178.329 E31.74759
G1 X178.329 Y183.582 E32.00755
G1 X178.925 Y183.582 E32.02839
G1 X183.582 Y178.925 E32.25888
G1 X183.582 Y179.52 E32.27972
G1 X179.52 Y183.582 E32.48074
G1 X180.116 Y183.582 E32.50158
G1 X183.582 Y180.116 E32.67314
G1 X183.582 Y180.711 E32.69397
G1 X180.711 Y183.582 E32.83606
G1 X181.307 Y183.582 E32.8569
G1 X183.582 Y181.307 E32.96951
G1 X183.582 Y181.902 E32.99035
G1 X181.902 Y183.582 E33.07349
G1 X182.498 Y183.582 E33.09433
G1 X183.582 Y182.498 E33.148
G1 X183.582 Y183.093 E33.16884
G1 X182.912 Y183.764 E33.20201
; INIT stop printing object xyzCalibration_cube id:0 copy 0
M106 S132.6
;LAYER_CHANGE
;Z:0.7
;HEIGHT:0.2
G92 E0
G1 E-4 F3600
G1 Z0.7 F9000
; stop printing object xyzCalibration_cube id:0 copy 0
; INIT printing object xyzCalibration_cube id:0 copy 0
; printing object xyzCalibration_cube id:0 copy 0
G1 X183.89 Y183.89
G1 E0 F3600
;TYPE:Internal perimeter
;WIDTH:0.464
G1 F4200
G1 X166.11 Y183.89 E0.62252
G1 X166.11 Y166.11 E1.24504
G1 X183.89 Y166.11 E1.86756
M73 P5 R18
G1 X183.89 Y183.83 E2.48797
G1 X184.311 Y184.311 F9000
G1 F4200
G1 X165.689 Y184.311 E3.13998
G1 X165.689 Y165.689 E3.79198
G1 X184.311 Y165.689 E4.44399
G1 X184.311 Y184.251 E5.09389
G1 X184.71 Y184.71 F9000
;TYPE:External perimeter
;WIDTH:0.42
G1 F2100
G1 X165.29 Y184.71 E5.70279
G1 X165.29 Y165.29 E6.31169
G1 X184.71 Y165.29 E6.92059
G1 X184.71 Y184.65 E7.52761
;WIPE_START
G1 X184.364 Y184.51 F9000
;WIPE_END
G1 X166.236 Y182.908
;TYPE:Solid infill
;WIDTH:0.463742
G1 F2400
G1 X166.911 Y183.582 E7.56097
G1 X167.506 Y183.582 E7.58181
G1 X166.418 Y182.494 E7.63568
G1 X166.418 Y181.898 E7.65652
G1 X168.102 Y183.582 E7.73986
G1 X168.697 Y183.582 E7.7607
G1 X166.418 Y181.303 E7.87351
G1 X166.418 Y180.707 E7.89435
G1 X169.293 Y183.582 E8.03663
G1 X169.888 Y183.582 E8.05747
G1 X166.418 Y180.112 E8.22922
G1 X166.418 Y179.516 E8.25006
G1 X170.484 Y183.582 E8.45128
G1 X171.079 Y183.582 E8.47212
G1 X166.418 Y178.921 E8.70281
G1 X166.418 Y178.325 E8.72365
G1 X171.675 Y183.582 E8.98381
G1 X172.27 Y183.582 E9.00465
G1 X166.418 Y177.73 E9.29428
G1 X166.418 Y177.134 E9.31512
G1 X172.866 Y183.582 E9.63422
G1 X173.461 Y183.582 E9.65505
G1 X166.418 Y176.539 E10.00362
G1 X166.418 Y175.943 E10.02446
G1 X174.057 Y183.582 E10.4025
G1 X174.652 Y183.582 E10.42334
G1 X166.418 Y175.348 E10.83085
G1 X166.418 Y174.752 E10.85169
G1 X175.248 Y183.582 E11.28867
G1 X175.843 Y183.582 E11.30951
G1 X166.418 Y174.157 E11.77596
G1 X166.418 Y173.561 E11.7968
G1 X176.439 Y183.582 E12.29272
G1 X177.034 Y183.582 E12.31356
G1 X166.418 Y172.966 E12.83895
G1 X166.418 Y172.37 E12.85979
G1 X177.63 Y183.582 E13.41465
G1 X178.225 Y183.582 E13.43549
G1 X166.418 Y171.775 E14.01982
G1 X166.418 Y171.179 E14.04065
G1 X178.821 Y183.582 E14.65445
G1 X179.416 Y183.582 E14.67529
G1 X166.418 Y170.584 E15.31856
G1 X166.418 Y169.989 E15.3394
G1 X180.011 Y183.582 E16.01214
G1 X180.607 Y183.582 E16.03298
G1 X166.418 Y169.393 E16.73519
G1 X166.418 Y168.798 E16.75603
G1 X181.202 Y183.582 E17.48771
M73 P6 R18
G1 X181.798 Y183.582 E17.50855
G1 X166.418 Y168.202 E18.2697
G1 X166.418 Y167.607 E18.29054
G1 X182.393 Y183.582 E19.08116
G1 X182.989 Y183.582 E19.102
G1 X166.418 Y167.011 E19.92209
G1 X166.42 Y166.418 E19.94285
G1 X183.582 Y183.58 E20.79222
G1 X183.582 Y182.985 E20.81306
G1 X167.015 Y166.418 E21.63295
G1 X167.611 Y166.418 E21.65379
G1 X183.582 Y182.389 E22.44421
G1 X183.582 Y181.794 E22.46505
G1 X168.206 Y166.418 E23.226
G1 X168.802 Y166.418 E23.24684
G1 X183.582 Y181.198 E23.97832
G1 X183.582 Y180.603 E23.99916
G1 X169.397 Y166.418 E24.70117
G1 X169.992 Y166.418 E24.72201
G1 X183.582 Y180.008 E25.39456
G1 X183.582 Y179.412 E25.41539
G1 X170.588 Y166.418 E26.05847
G1 X171.183 Y166.418 E26.07931
G1 X183.582 Y178.817 E26.69291
G1 X183.582 Y178.221 E26.71375
G1 X171.779 Y166.418 E27.29788
G1 X172.374 Y166.418 E27.31872
G1 X183.582 Y177.626 E27.87338
G1 X183.582 Y177.03 E27.89422
G1 X172.97 Y166.418 E28.41941
G1 X173.565 Y166.418 E28.44025
G1 X183.582 Y176.435 E28.93598
G1 X183.582 Y175.839 E28.95681
G1 X174.161 Y166.418 E29.42307
G1 X174.756 Y166.418 E29.44391
G1 X183.582 Y175.244 E29.88069
G1 X183.582 Y174.648 E29.90153
G1 X175.352 Y166.418 E30.30884
G1 X175.947 Y166.418 E30.32968
G1 X183.582 Y174.053 E30.70752
G1 X183.582 Y173.457 E30.72836
G1 X176.543 Y166.418 E31.07673
G1 X177.138 Y166.418 E31.09757
G1 X183.582 Y172.862 E31.41648
G1 X183.582 Y172.266 E31.43731
G1 X177.734 Y166.418 E31.72675
G1 X178.329 Y166.418 E31.74759
G1 X183.582 Y171.671 E32.00755
G1 X183.582 Y171.075 E32.02839
G1 X178.925 Y166.418 E32.25888
G1 X179.52 Y166.418 E32.27972
G1 X183.582 Y170.48 E32.48074
M73 P7 R18
G1 X183.582 Y169.884 E32.50158
G1 X180.116 Y166.418 E32.67314
G1 X180.711 Y166.418 E32.69397
G1 X183.582 Y169.289 E32.83606
G1 X183.582 Y168.693 E32.8569
G1 X181.307 Y166.418 E32.96951
G1 X181.902 Y166.418 E32.99035
G1 X183.582 Y168.098 E33.07349
G1 X183.582 Y167.502 E33.09433
G1 X182.498 Y166.418 E33.148
G1 X183.093 Y166.418 E33.16884
G1 X183.764 Y167.088 E33.20201
; INIT stop printing object xyzCalibration_cube id:0 copy 0
M106 S224.4
;LAYER_CHANGE
;Z:0.9
;HEIGHT:0.2
G92 E0
G1 E-4 F3600
G1 Z0.9 F9000
; stop printing object xyzCalibration_cube id:0 copy 0
; INIT printing object xyzCalibration_cube id:0 copy 0
; printing object xyzCalibration_cube id:0 copy 0
G1 X183.89 Y166.11
G1 E0 F3600
;TYPE:Internal perimeter
;WIDTH:0.464
G1 F4200
G1 X183.89 Y183.89 E0.62252
G1 X166.11 Y183.89 E1.24504
G1 X166.11 Y166.11 E1.86756
G1 X183.83 Y166.11 E2.48797
G1 X184.311 Y165.689 F9000
G1 F4200
G1 X184.311 Y184.311 E3.13998
G1 X165.689 Y184.311 E3.79198
G1 X165.689 Y165.689 E4.44399
G1 X184.251 Y165.689 E5.09389
G1 X184.71 Y165.29 F9000
;TYPE:External perimeter
;WIDTH:0.42
G1 F2100
G1 X184.71 Y184.71 E5.70279
G1 X165.29 Y184.71 E6.31169
G1 X165.29 Y165.29 E6.92059
G1 X184.65 Y165.29 E7.52761
;WIPE_START
G1 X184.51 Y165.636 F9000
;WIPE_END
G1 X181.032 Y183.765
;TYPE:Internal infill
;WIDTH:0.444
G1 F5400
G1 X183.592 Y181.205 E7.64834
G1 X183.592 Y178.739 E7.73059
G1 X178.739 Y183.592 E7.95949
